apps/pdfeditor/main/resources/img/toolbar/2.5x/btn-text-comment.svg

<svg xmlns="http://www.w3.org/2000/svg" width="20" height="20" fill="none"><path fill="#000" d="M10 14H6v-1h4v1Zm4-3H6v-1h8v1Zm0-3H6V7h8v1Z"/><path fill="#000" d="M5 4h10V3h3v3h-1v9h1v3h-3v-1H5v1H2v-3h1V6H2V3h3v1ZM3 17h1v-1H3v1Zm13 0h1v-1h-1v1ZM5 6H4v9h1v1h10v-1h1V6h-1V5H5v1ZM3 5h1V4H3v1Zm13 0h1V4h-1v1Z"/></svg>

<svg width="20" height="20" viewBox="0 0 20 20" fill="none" xmlns="http://www.w3.org/2000/svg">
<path fill-rule="evenodd" clip-rule="evenodd" d="M2 3H5V4H15V3H18V6H17V15H18V18H15V17H5V18H2L2 15H3V6H2V3ZM4 4H3V5H4V4ZM5 5H15V6H16V15H15V16H5L5 15H4V6H5V5ZM17 4H16V5H17V4ZM3 16L3 17H4V16H3ZM17 16H16V17H17V16Z" fill="black"/>
<path d="M6 7H14V8H6V7Z" fill="black"/>
<path d="M6 10H14V11H6V10Z" fill="black"/>
<path d="M6 13H10V14H6V13Z" fill="black"/>
</svg>
